REACT_GL/src/assets/ParkIcon.svg

<svg fill="none" height="39" viewBox="0 0 39 39" width="39" xmlns="http://www.w3.org/2000/svg"><g fill="#090909"><path d="m13.7739 22.6901c.0816.0815.1921.1272.3074.1272.1152 0 .2258-.0457.3073-.1272l4.0371-4.0371c.0409-.0408.0733-.0893.0955-.1426.0221-.0534.0335-.1105.0335-.1683.0001-.0577-.0113-.1149-.0333-.1683-.0221-.0534-.0545-.1019-.0953-.1427-.0408-.0409-.0893-.0733-.1426-.0955-.0533-.0221-.1105-.0335-.1683-.0335-.0577-.0001-.1149.0113-.1683.0333-.0534.0221-.1019.0545-.1427.0953l-3.2853 3.2853v-5.0845c.5538-.5568 2.5289-2.5274 2.5289-2.5274l-.62-.6223s-2.4315 2.4268-2.6615 2.6614c-.08.0814-.125.1907-.1257.3047v6.3269c.001.1141.0464.2233.1265.3046v.0039z"/><path d="m9.3401 13.0818-.62003.6223s1.97513 1.9713 2.52733 2.5274v5.086l-3.28372-3.2845c-.04016-.0433-.08862-.078-.14249-.1021-.05386-.0241-.11203-.0371-.17103-.0382-.059-.0012-.11763.0096-.17238.0316-.05476.022-.10452.0548-.14633.0964-.0418.0417-.07479.0913-.097.146-.0222.0547-.03317.1133-.03225.1723.00093.059.01372.1172.03763.1711.02391.054.05844.1026.10152.1429l4.03715 4.0371c.0406.0411.089.0738.1423.096.0534.0222.1106.0336.1684.0335.1159-.0004.227-.0463.3093-.128.0409-.0407.0733-.0892.0954-.1425s.0334-.1105.0333-.1683v-6.3298c-.0006-.1138-.0451-.2229-.1241-.3047-.2308-.2362-2.663-2.6645-2.663-2.6645z"/><path d="m17.0512 10.1065c-.0826-.0823-.1945-.12847-.3111-.12847-.1167 0-.2285.04617-.3112.12847l-3.5443 3.5451-3.54349-3.5451c-.08236-.0823-.19404-.12865-.31051-.12872s-.22821.04612-.31067.12832c-.08246.0823-.12889.1939-.12911.3104-.00021.1165.04581.2283.12797.3108l3.85431 3.8551c.0408.0409.0893.0734.1427.0955.0534.0222.1106.0336.1684.0336.0579 0 .1151-.0114.1685-.0336.0534-.0221.1019-.0546.1427-.0955l3.8558-3.8558c.0814-.0827.1271-.1941.1271-.3101s-.0457-.2273-.1271-.31z"/><path d="m33.02 27.4584c.946-.0014 1.8528-.3779 2.5216-1.0469.6689-.6689 1.0451-1.5758 1.0463-2.5218v-6.9316c-.0012-.946-.3774-1.8529-1.0463-2.5218-.6688-.669-1.5756-1.0455-2.5216-1.0469h-6.9316c-.512.0019-1.0175.1146-1.4818.3304-.4642.2157-.8763.5295-1.2078.9196v-3.8307c-.0016-1.38089-.5509-2.70479-1.5274-3.68125-.9764-.97646-2.3003-1.52574-3.6813-1.52735h-10.57338c-1.38039.00242-2.70351.55206-3.67931 1.52843s-1.52467 2.29981-1.52628 3.68017v10.5681c.00182 1.3802.55079 2.7034 1.52659 3.6795.9758.976 2.29881 1.5254 3.679 1.5276h2.94328v5.9414h-7.52578c-.05921-.0024-.1183.0071-.17373.0281-.05543.0209-.10605.0529-.14881.0939s-.07679.0902-.10004.1448c-.02324.0545-.03523.1131-.03523.1724 0 .0592.01199.1179.03523.1724.02325.0545.05728.1037.10004.1447.04276.0411.09338.073.14881.094.05543.0209.11452.0305.17373.028h32.93058c.0593.0025.1183-.0071.1738-.028.0554-.021.106-.0529.1488-.094.0427-.041.0768-.0902.1-.1447.0233-.0545.0352-.1132.0352-.1724 0-.0593-.0119-.1179-.0352-.1724-.0232-.0546-.0573-.1038-.1-.1448-.0428-.041-.0934-.073-.1488-.0939-.0555-.021-.1145-.0305-.1738-.0281h-4.7843v-5.0669zm-21.5795-2.6752c.0002-.0579-.0111-.1153-.0334-.1688-.0222-.0535-.0549-.102-.096-.1427l-4.36926-4.3677c-.04087-.0407-.08935-.073-.14268-.095-.05333-.0219-.11047-.0332-.16815-.0331s-.11478.0116-.16803.0338c-.05325.0221-.10161.0546-.14233.0954-.04071.0409-.07297.0894-.09495.1427-.02197.0533-.03323.1105-.03313.1682.00011.0576.01158.1147.03375.168.02217.0532.05461.1016.09548.1423l4.2397 4.2382v.7427h-2.94478c-1.14805-.0012-2.24871-.4579-3.06043-1.2697-.81172-.8119-1.26817-1.9126-1.26918-3.0607v-10.5681c.00101-1.14801.45746-2.24876 1.26918-3.06062s1.91238-1.26851 3.06043-1.26972h10.57038c1.1481.00121 2.2488.45783 3.0607 1.26967.8118.81184 1.2685 1.91259 1.2697 3.06067v10.5681c-.0012 1.1481-.4579 2.2489-1.2697 3.0607-.8119.8119-1.9126 1.2685-3.0607 1.2697h-2.9806v-.7427l4.2397-4.2382c.0432-.0402.078-.0886.1021-.1425.0241-.0538.0371-.112.0382-.171.0012-.059-.0096-.1176-.0316-.1724-.022-.0547-.0548-.1045-.0965-.1463-.0416-.0418-.0913-.0748-.1459-.097-.0547-.0222-.1133-.0332-.1723-.0323-.059.001-.1172.0138-.1712.0377-.0539.0239-.1025.0584-.1428.1015l-4.3685 4.3677c-.0412.0407-.0738.0892-.0961.1427-.0222.0535-.0335.1109-.0334.1688v7.7421h-2.8877zm16.377 7.7421h-12.611v-5.9414h2.9806c.8673-.0015 1.7204-.2198 2.4818-.6352.7614-.4153 1.4068-1.0144 1.8775-1.7429.077.8857.4825 1.7106 1.1368 2.3124.6543.6019 1.5101.9372 2.3991.9402h1.7352zm.8783 0v-8.0247c0-.1166-.046-.2286-.128-.3115l-1.8441-1.8434c-.0834-.0782-.194-.1209-.3083-.1191s-.2234.048-.3043.1289c-.0808.0808-.1271.19-.1289.3043s.0409.2249.1191.3082l1.7162 1.7116v1.9043h-1.7321c-.7133-.0008-1.397-.2845-1.9013-.7889-.5042-.5044-.7878-1.1882-.7884-1.9015v-6.9316c.0006-.7132.2842-1.3971.7884-1.9015.5043-.5044 1.188-.7881 1.9013-.7889h6.9316c.7132.0008 1.397.2845 1.9012.7889.5043.5044.7878 1.1883.7884 1.9015v6.9316c-.0006.7127-.2837 1.3961-.7873 1.9004s-1.1866.7884-1.8993.79h-1.512l1.5143-1.5135c.0783-.0834.121-.1939.1192-.3083-.0019-.1143-.0481-.2234-.1289-.3043-.0809-.0808-.19-.127-.3043-.1289-.1144-.0018-.2249.0409-.3083.1192l-1.9698 1.966c-.0822.0825-.1282.1943-.128.3107v5.8005z"/><path d="m28.4 16.5956c-.1164 0-.2281.0462-.3105.1284-.0824.0823-.1288.1939-.129.3103v4.1072l-1.2363-1.2378c-.0403-.043-.0889-.0775-.1429-.1013-.0539-.0239-.1121-.0367-.1711-.0377-.059-.0009-.1176.01-.1723.0322-.0547.0221-.1043.055-.1461.0967-.0417.0418-.0746.0914-.0967.1461-.0222.0547-.0331.1133-.0322.1723.001.059.0138.1172.0376.1711.0239.054.0584.1026.1014.143l1.9866 1.9865c.083.0819.1949.1279.3115.128.0577-.0004.1148-.0115.1684-.0328.08-.0335.1483-.09.1964-.1622s.0738-.157.074-.2438v-5.1675c0-.1163-.0462-.2279-.1285-.3102s-.1939-.1285-.3103-.1285z"/><path d="m30.5573 24.9082c.0533.0214.1102.0325.1676.0328.1166 0 .2286-.046.3115-.128l1.9866-1.9866c.0782-.0834.1209-.1939.1191-.3082-.0018-.1144-.048-.2235-.1289-.3043-.0808-.0809-.19-.1271-.3043-.1289s-.2249.0409-.3082.1191l-1.2363 1.2378v-6.4061c-.0047-.1133-.0531-.2203-.1349-.2988s-.1908-.1224-.3042-.1224-.2224.0439-.3043.1224c-.0818.0785-.1301.1855-.1349.2988v7.4649c-.0001.0871.0256.1723.0739.2448s.1169.1292.1973.1627z"/></g></svg>

<svg width="39" height="39" viewBox="0 0 39 39" fill="none" xmlns="http://www.w3.org/2000/svg">
<path d="M13.7739 22.6901C13.8555 22.7716 13.966 22.8173 14.0813 22.8173C14.1965 22.8173 14.3071 22.7716 14.3886 22.6901L18.4257 18.653C18.4666 18.6122 18.499 18.5637 18.5212 18.5104C18.5433 18.457 18.5547 18.3999 18.5547 18.3421C18.5548 18.2844 18.5434 18.2272 18.5214 18.1738C18.4993 18.1204 18.4669 18.0719 18.4261 18.0311C18.3853 17.9902 18.3368 17.9578 18.2835 17.9356C18.2302 17.9135 18.173 17.9021 18.1152 17.9021C18.0575 17.902 18.0003 17.9134 17.9469 17.9354C17.8935 17.9575 17.845 17.9899 17.8042 18.0307L14.5189 21.316V16.2315C15.0727 15.6747 17.0478 13.7041 17.0478 13.7041L16.4278 13.0818C16.4278 13.0818 13.9963 15.5086 13.7663 15.7432C13.6863 15.8246 13.6413 15.9339 13.6406 16.0479V22.3748C13.6416 22.4889 13.687 22.5981 13.7671 22.6794C13.7671 22.6794 13.7671 22.6794 13.7671 22.6833L13.7739 22.6901Z" fill="#090909"/>
<path d="M9.3401 13.0818L8.72007 13.7041C8.72007 13.7041 10.6952 15.6754 11.2474 16.2315V21.3175L7.96368 18.033C7.92352 17.9897 7.87506 17.955 7.82119 17.9309C7.76733 17.9068 7.70916 17.8938 7.65016 17.8927C7.59116 17.8915 7.53253 17.9023 7.47778 17.9243C7.42302 17.9463 7.37326 17.9791 7.33145 18.0207C7.28965 18.0624 7.25666 18.112 7.23445 18.1667C7.21225 18.2214 7.20128 18.28 7.2022 18.339C7.20313 18.398 7.21592 18.4562 7.23983 18.5101C7.26374 18.5641 7.29827 18.6127 7.34135 18.653L11.3785 22.6901C11.4191 22.7312 11.4675 22.7639 11.5208 22.7861C11.5742 22.8083 11.6314 22.8197 11.6892 22.8196C11.8051 22.8192 11.9162 22.7733 11.9985 22.6916C12.0394 22.6509 12.0718 22.6024 12.0939 22.5491C12.116 22.4958 12.1273 22.4386 12.1272 22.3808V16.051C12.1266 15.9372 12.0821 15.8281 12.0031 15.7463C11.7723 15.5101 9.3401 13.0818 9.3401 13.0818Z" fill="#090909"/>
<path d="M17.0512 10.1065C16.9686 10.0242 16.8567 9.97803 16.7401 9.97803C16.6234 9.97803 16.5116 10.0242 16.4289 10.1065L12.8846 13.6516L9.34111 10.1065C9.25875 10.0242 9.14707 9.97785 9.0306 9.97778C8.91413 9.97771 8.80239 10.0239 8.71993 10.1061C8.63747 10.1884 8.59104 10.3 8.59082 10.4165C8.59061 10.533 8.63663 10.6448 8.71879 10.7273L12.5731 14.5824C12.6139 14.6233 12.6624 14.6558 12.7158 14.6779C12.7692 14.7001 12.8264 14.7115 12.8842 14.7115C12.9421 14.7115 12.9993 14.7001 13.0527 14.6779C13.1061 14.6558 13.1546 14.6233 13.1954 14.5824L17.0512 10.7266C17.1326 10.6439 17.1783 10.5325 17.1783 10.4165C17.1783 10.3005 17.1326 10.1892 17.0512 10.1065Z" fill="#090909"/>
<path d="M33.02 27.4584C33.966 27.457 34.8728 27.0805 35.5416 26.4115C36.2105 25.7426 36.5867 24.8357 36.5879 23.8897V16.9581C36.5867 16.0121 36.2105 15.1052 35.5416 14.4363C34.8728 13.7673 33.966 13.3908 33.02 13.3894H26.0884C25.5764 13.3913 25.0709 13.504 24.6066 13.7198C24.1424 13.9355 23.7303 14.2493 23.3988 14.6394V10.8087C23.3972 9.42781 22.8479 8.10391 21.8714 7.12745C20.895 6.15099 19.5711 5.60171 18.1901 5.6001H7.61672C6.23633 5.60252 4.91321 6.15216 3.93741 7.12853C2.96161 8.1049 2.41274 9.42834 2.41113 10.8087V21.3768C2.41295 22.757 2.96192 24.0802 3.93772 25.0563C4.91352 26.0323 6.23653 26.5817 7.61672 26.5839H10.56V32.5253H3.03422C2.97501 32.5229 2.91592 32.5324 2.86049 32.5534C2.80506 32.5743 2.75444 32.6063 2.71168 32.6473C2.66892 32.6883 2.63489 32.7375 2.61164 32.7921C2.5884 32.8466 2.57641 32.9052 2.57641 32.9645C2.57641 33.0237 2.5884 33.0824 2.61164 33.1369C2.63489 33.1914 2.66892 33.2406 2.71168 33.2816C2.75444 33.3227 2.80506 33.3546 2.86049 33.3756C2.91592 33.3965 2.97501 33.4061 3.03422 33.4036H35.9648C36.0241 33.4061 36.0831 33.3965 36.1386 33.3756C36.194 33.3546 36.2446 33.3227 36.2874 33.2816C36.3301 33.2406 36.3642 33.1914 36.3874 33.1369C36.4107 33.0824 36.4226 33.0237 36.4226 32.9645C36.4226 32.9052 36.4107 32.8466 36.3874 32.7921C36.3642 32.7375 36.3301 32.6883 36.2874 32.6473C36.2446 32.6063 36.194 32.5743 36.1386 32.5534C36.0831 32.5324 36.0241 32.5229 35.9648 32.5253H31.1805V27.4584H33.02ZM11.4405 24.7832C11.4407 24.7253 11.4294 24.6679 11.4071 24.6144C11.3849 24.5609 11.3522 24.5124 11.3111 24.4717L6.94184 20.104C6.90097 20.0633 6.85249 20.031 6.79916 20.009C6.74583 19.9871 6.68869 19.9758 6.63101 19.9759C6.57333 19.976 6.51623 19.9875 6.46298 20.0097C6.40973 20.0318 6.36137 20.0643 6.32065 20.1051C6.27994 20.146 6.24768 20.1945 6.2257 20.2478C6.20373 20.3011 6.19247 20.3583 6.19257 20.416C6.19268 20.4736 6.20415 20.5307 6.22632 20.584C6.24849 20.6372 6.28093 20.6856 6.3218 20.7263L10.5615 24.9645V25.7072H7.61672C6.46867 25.706 5.36801 25.2493 4.55629 24.4375C3.74457 23.6256 3.28812 22.5249 3.28711 21.3768V10.8087C3.28812 9.66069 3.74457 8.55994 4.55629 7.74808C5.36801 6.93622 6.46867 6.47957 7.61672 6.47836H18.1871C19.3352 6.47957 20.4359 6.93619 21.2478 7.74803C22.0596 8.55987 22.5163 9.66062 22.5175 10.8087V21.3768C22.5163 22.5249 22.0596 23.6257 21.2478 24.4375C20.4359 25.2494 19.3352 25.706 18.1871 25.7072H15.2065V24.9645L19.4462 20.7263C19.4894 20.6861 19.5242 20.6377 19.5483 20.5838C19.5724 20.53 19.5854 20.4718 19.5865 20.4128C19.5877 20.3538 19.5769 20.2952 19.5549 20.2404C19.5329 20.1857 19.5001 20.1359 19.4584 20.0941C19.4168 20.0523 19.3671 20.0193 19.3125 19.9971C19.2578 19.9749 19.1992 19.9639 19.1402 19.9648C19.0812 19.9658 19.023 19.9786 18.969 20.0025C18.9151 20.0264 18.8665 20.0609 18.8262 20.104L14.4577 24.4717C14.4165 24.5124 14.3839 24.5609 14.3616 24.6144C14.3394 24.6679 14.3281 24.7253 14.3282 24.7832V32.5253H11.4405V24.7832ZM27.8175 32.5253H15.2065V26.5839H18.1871C19.0544 26.5824 19.9075 26.3641 20.6689 25.9487C21.4303 25.5334 22.0757 24.9343 22.5464 24.2058C22.6234 25.0915 23.0289 25.9164 23.6832 26.5182C24.3375 27.1201 25.1933 27.4554 26.0823 27.4584H27.8175V32.5253ZM28.6958 32.5253V24.5006C28.6958 24.384 28.6498 24.272 28.5678 24.1891L26.7237 22.3457C26.6403 22.2675 26.5297 22.2248 26.4154 22.2266C26.3011 22.2284 26.192 22.2746 26.1111 22.3555C26.0303 22.4363 25.984 22.5455 25.9822 22.6598C25.9804 22.7741 26.0231 22.8847 26.1013 22.968L27.8175 24.6796V26.5839H26.0854C25.3721 26.5831 24.6884 26.2994 24.1841 25.795C23.6799 25.2906 23.3963 24.6068 23.3957 23.8935V16.9619C23.3963 16.2487 23.6799 15.5648 24.1841 15.0604C24.6884 14.556 25.3721 14.2723 26.0854 14.2715H33.017C33.7302 14.2723 34.414 14.556 34.9182 15.0604C35.4225 15.5648 35.706 16.2487 35.7066 16.9619V23.8935C35.706 24.6062 35.4229 25.2896 34.9193 25.7939C34.4157 26.2982 33.7327 26.5823 33.02 26.5839H31.508L33.0223 25.0704C33.1006 24.987 33.1433 24.8765 33.1415 24.7621C33.1396 24.6478 33.0934 24.5387 33.0126 24.4578C32.9317 24.377 32.8226 24.3308 32.7083 24.3289C32.5939 24.3271 32.4834 24.3698 32.4 24.4481L30.4302 26.4141C30.348 26.4966 30.302 26.6084 30.3022 26.7248V32.5253H28.6958Z" fill="#090909"/>
<path d="M28.4 16.5956C28.2836 16.5956 28.1719 16.6418 28.0895 16.724C28.0071 16.8063 27.9607 16.9179 27.9605 17.0343V21.1415L26.7242 19.9037C26.6839 19.8607 26.6353 19.8262 26.5813 19.8024C26.5274 19.7785 26.4692 19.7657 26.4102 19.7647C26.3512 19.7638 26.2926 19.7747 26.2379 19.7969C26.1832 19.819 26.1336 19.8519 26.0918 19.8936C26.0501 19.9354 26.0172 19.985 25.9951 20.0397C25.9729 20.0944 25.962 20.153 25.9629 20.212C25.9639 20.271 25.9767 20.3292 26.0005 20.3831C26.0244 20.4371 26.0589 20.4857 26.1019 20.5261L28.0885 22.5126C28.1715 22.5945 28.2834 22.6405 28.4 22.6406C28.4577 22.6402 28.5148 22.6291 28.5684 22.6078C28.6484 22.5743 28.7167 22.5178 28.7648 22.4456C28.8129 22.3734 28.8386 22.2886 28.8388 22.2018V17.0343C28.8388 16.918 28.7926 16.8064 28.7103 16.7241C28.628 16.6418 28.5164 16.5956 28.4 16.5956Z" fill="#090909"/>
<path d="M30.5573 24.9082C30.6106 24.9296 30.6675 24.9407 30.7249 24.941C30.8415 24.941 30.9535 24.895 31.0364 24.813L33.023 22.8264C33.1012 22.743 33.1439 22.6325 33.1421 22.5182C33.1403 22.4038 33.0941 22.2947 33.0132 22.2139C32.9324 22.133 32.8232 22.0868 32.7089 22.085C32.5946 22.0832 32.484 22.1259 32.4007 22.2041L31.1644 23.4419V17.0358C31.1597 16.9225 31.1113 16.8155 31.0295 16.737C30.9477 16.6585 30.8387 16.6146 30.7253 16.6146C30.6119 16.6146 30.5029 16.6585 30.421 16.737C30.3392 16.8155 30.2909 16.9225 30.2861 17.0358V24.5007C30.286 24.5878 30.3117 24.673 30.36 24.7455C30.4083 24.818 30.4769 24.8747 30.5573 24.9082Z" fill="#090909"/>
</svg>
